X: 101
T:Foliada de Luxán
M:3/4
L:1/8
Q:200
C:Trad
S:Rep. Os Gaiteiros de Soutelo de Montes
R:Foliada
K:C
FEDC | B,"F."G B,C D2- | D2 EDCB, | C"F."G CD E2- | E2 FEDC | D"F."c DE
F2- | F2 EFED |
E2C4- | C2 FEDC | B,"F."G B,C D2- | D2 EDCB, |C"F."G CD E2- | E2 FEDC |
D"F."c DE F2- | F2 D3 E/2D/2 | C6- |C2- :| |: C2 E2 | G4 {C}G2- | G2 A2G
E | C3"F."G C2- | C2 GAGF |G2"~"E2 C2- | C4 E2 | A3 "F."c A"F."c
A2 G2F2 | G2E2 G2 | {C}G2F2E2| F2D2 F2 | {C}F2E2D2 | E2C4- | C2 :||

